X:112
T:Stratford Jubilee
M:6/8
L:1/8
B:Thompson's Compleat Collection of 200 Favourite Country Dances, vol. 3 (London, 1773)
Z:Transcribed and edited by Flynn Titford-Mock, 2007
Z:abc's:AK/Fiddler's Companion
K:A
Ace dBG | AEE EGB | Ace dBG | A[Ec][A,3a3]::fDD Dfa | geB GEb |
abg fe^d | e3 efg | afd Bcd | ecA GAB | FAd EAc | [Cc][Dd][B,B] [A,3A3] :|

